apps/scalable/gnash.svg

<svg height="48" viewBox="0 0 48 48.000001" width="48" xmlns="http://www.w3.org/2000/svg" xmlns:xlink="http://www.w3.org/1999/xlink"><linearGradient id="a" gradientUnits="userSpaceOnUse" x1="23.72323" x2="23.809927" y1="1051.571425" y2="1005.410622"><stop offset="0" stop-color="#5783a3"/><stop offset="1" stop-color="#91b9d5"/></linearGradient><linearGradient id="b" gradientUnits="userSpaceOnUse" x1="23.318711618828" x2="23.14402161875" y1="1050.5302496942" y2="1006.246477500606"><stop offset="0" stop-color="#f2f2f2"/><stop offset="1" stop-color="#f9f9f9"/></linearGradient><g transform="translate(0 -1004.3622)"><path d="m24 1005.8622c12.426848 0 22.5 10.0732 22.5 22.5s-10.073152 22.5-22.5 22.5-22.5-10.0732-22.5-22.5 10.073152-22.5 22.5-22.5z" fill="url(#b)"/><path d="m24 15c-1.65675 0-3 1.3433-3 3 0 .8276.339831 1.568375.880859 2.109375l.123047.123047h-.003906l3.767578 3.767578 2 2 13.353516 13.353516c1.356779-1.51197 2.513987-3.206169 3.435547-5.039063l-12.435547-12.435547-5.998047-6c-.542969-.543-1.294266-.878906-2.123047-.878906zm-6 6c-1.280421-.02-2.503401.878322-2.865234 2.107422-.337342 1.0413-.030694 2.244672.738281 3.013672l18.4375 18.4375c1.834393-.921876 3.529926-2.079758 5.042969-3.4375l-15.353516-15.353516-3.767578-3.767578c-.135534-.1217-.330501-.330072-.517578-.451172-.496573-.355-1.104031-.550928-1.714844-.548828z" fill-opacity=".078431" transform="translate(0 1004.3622)"/><path d="m24 15c-1.65675 0-3 1.3433-3 3 0 .8922.395598 1.683522 1.011719 2.232422h-.011719l2 2 2-2h-.013672c.61715-.5495 1.013672-1.341222 1.013672-2.232422 0-1.66-1.34325-3-3-3zm-6 6c-1.280421-.02-2.503401.878322-2.865234 2.107422-.382311 1.1801.062983 2.568475 1.070312 3.296875.988161.764 2.461653.795412 3.478516.070312.205574-.131.41053-.345481.5625-.488281.662236-.6622 1.324091-1.324128 1.986328-1.986328-.666667-.6667-1.333333-1.3333-2-2-.135534-.1217-.330501-.330072-.517578-.451172-.496573-.355-1.104031-.550928-1.714844-.548828zm12 0c-.892151 0-1.68347.395619-2.232422 1.011719v-.011719l-2 2 2 2v-.013672c.549506.6172 1.341208 1.013672 2.232422 1.013672 1.66 0 3-1.3432 3-3 0-1.6567-1.343333-3-3-3zm-6 4.767578-2 2h .013672c-.617149.5495-1.013672 1.341222-1.013672 2.232422 0 1.66 1.34325 3 3 3s3-1.3433 3-3c0-.8922-.395598-1.683522-1.011719-2.232422h.011719z" fill="#d8541f" transform="translate(0 1004.3622)"/><path d="m24 1005.3622c-12.68419 0-23 10.3158-23 23s10.31581 23 23 23 23-10.3158 23-23-10.31581-23-23-23zm0 3.0996c11.008801 0 19.900391 8.8916 19.900391 19.9004s-8.89159 19.9004-19.900391 19.9004-19.90039-8.8916-19.90039-19.9004 8.891589-19.9004 19.90039-19.9004z" fill="url(#a)"/></g></svg>

<?xml version="1.0" encoding="UTF-8" standalone="no"?>
<!-- Created with Inkscape (http://www.inkscape.org/) -->

<svg
   xmlns:dc="http://purl.org/dc/elements/1.1/"
   xmlns:cc="http://creativecommons.org/ns#"
   xmlns:rdf="http://www.w3.org/1999/02/22-rdf-syntax-ns#"
   xmlns:svg="http://www.w3.org/2000/svg"
   xmlns="http://www.w3.org/2000/svg"
   xmlns:xlink="http://www.w3.org/1999/xlink"
   xmlns:sodipodi="http://sodipodi.sourceforge.net/DTD/sodipodi-0.dtd"
   xmlns:inkscape="http://www.inkscape.org/namespaces/inkscape"
   width="48"
   height="48"
   viewBox="0 0 48 48.000001"
   id="svg2"
   version="1.1"
   inkscape:version="0.91 r13725"
   sodipodi:docname="gnash.svg">
  <sodipodi:namedview
     id="base"
     pagecolor="#dcdcdc"
     bordercolor="#666666"
     borderopacity="1.0"
     inkscape:pageopacity="0"
     inkscape:pageshadow="2"
     inkscape:zoom="7.919596"
     inkscape:cx="9.9702269"
     inkscape:cy="21.598401"
     inkscape:document-units="px"
     inkscape:current-layer="layer1"
     showgrid="false"
     units="px" />
  <defs
     id="defs4">
    <linearGradient
       inkscape:collect="always"
       id="linearGradient5048">
      <stop
         style="stop-color:#f2f2f2;stop-opacity:1"
         offset="0"
         id="stop5050" />
      <stop
         style="stop-color:#f9f9f9;stop-opacity:1"
         offset="1"
         id="stop5052" />
    </linearGradient>
    <linearGradient
       gradientUnits="userSpaceOnUse"
       y2="1"
       x2="0"
       y1="47"
       id="linearGradient3864"
       gradientTransform="translate(0,1004.3622)">
      <stop
         id="stop7"
         style="stop-color:#eaeaea;stop-opacity:1" />
      <stop
         id="stop9"
         style="stop-color:#f4f4f4;stop-opacity:1"
         offset="1" />
    </linearGradient>
    <linearGradient
       gradientUnits="userSpaceOnUse"
       y2="1.048422"
       x2="23.809927"
       y1="47.209225"
       x1="23.72323"
       id="linearGradient4168"
       xlink:href="#linearGradient4162"
       inkscape:collect="always"
       gradientTransform="translate(0,1004.3622)" />
    <linearGradient
       id="linearGradient4162"
       inkscape:collect="always">
      <stop
         id="stop4164"
         offset="0"
         style="stop-color:#5783a3;stop-opacity:1;" />
      <stop
         id="stop4166"
         offset="1"
         style="stop-color:#91b9d5;stop-opacity:1" />
    </linearGradient>
    <linearGradient
       inkscape:collect="always"
       xlink:href="#linearGradient5048"
       id="linearGradient5046"
       gradientUnits="userSpaceOnUse"
       gradientTransform="matrix(0.97826087,0,0,0.97826087,0.52173913,1004.8839)"
       y1="46.660713"
       x2="23.125"
       y2="1.3928574"
       x1="23.303572" />
  </defs>
  <metadata
     id="metadata7">
    <rdf:RDF>
      <cc:Work
         rdf:about="">
        <dc:format>image/svg+xml</dc:format>
        <dc:type
           rdf:resource="http://purl.org/dc/dcmitype/StillImage" />
        <dc:title />
      </cc:Work>
    </rdf:RDF>
  </metadata>
  <g
     transform="translate(0,-1004.3622)"
     id="layer1"
     inkscape:groupmode="layer"
     inkscape:label="Layer 1">
    <g
       id="g3226">
      <g
         id="g3220">
        <path
           d="m 24,1005.8622 c 12.426848,0 22.5,10.0732 22.5,22.5 0,12.4268 -10.073152,22.5 -22.5,22.5 -12.426848,0 -22.5,-10.0732 -22.5,-22.5 0,-12.4268 10.073152,-22.5 22.5,-22.5 z"
           style="fill:url(#linearGradient5046);fill-opacity:1"
           id="path21"
           inkscape:connector-curvature="0" />
        <g
           id="g3216">
          <path
             id="path4784"
             transform="translate(0,1004.3622)"
             d="M 24 15 C 22.34325 15 21 16.3433 21 18 C 21 18.8276 21.339831 19.568375 21.880859 20.109375 L 22.003906 20.232422 L 22 20.232422 L 25.767578 24 L 27.767578 26 L 41.121094 39.353516 C 42.477873 37.841546 43.635081 36.147347 44.556641 34.314453 L 32.121094 21.878906 L 26.123047 15.878906 C 25.580078 15.335906 24.828781 15 24 15 z M 18 21 C 16.719579 20.98 15.496599 21.878322 15.134766 23.107422 C 14.797424 24.148722 15.104072 25.352094 15.873047 26.121094 L 34.310547 44.558594 C 36.14494 43.636718 37.840473 42.478836 39.353516 41.121094 L 24 25.767578 L 20.232422 22 C 20.096888 21.8783 19.901921 21.669928 19.714844 21.548828 C 19.218271 21.193828 18.610813 20.9979 18 21 z "
             clip-path="none"
             style="fill:#000000;fill-opacity:0.07843137;fill-rule:nonzero;stroke:none" />
          <path
             id="path47"
             transform="translate(0,1004.3622)"
             d="M 24 15 C 22.34325 15 21 16.3433 21 18 C 21 18.8922 21.395598 19.683522 22.011719 20.232422 L 22 20.232422 L 24 22.232422 L 26 20.232422 L 25.986328 20.232422 C 26.603478 19.682922 27 18.8912 27 18 C 27 16.34 25.65675 15 24 15 z M 18 21 C 16.719579 20.98 15.496599 21.878322 15.134766 23.107422 C 14.752455 24.287522 15.197749 25.675897 16.205078 26.404297 C 17.193239 27.168297 18.666731 27.199709 19.683594 26.474609 C 19.889168 26.343609 20.094124 26.129128 20.246094 25.986328 C 20.90833 25.324128 21.570185 24.6622 22.232422 24 C 21.565755 23.3333 20.899089 22.6667 20.232422 22 C 20.096888 21.8783 19.901921 21.669928 19.714844 21.548828 C 19.218271 21.193828 18.610813 20.9979 18 21 z M 30 21 C 29.107849 21 28.31653 21.395619 27.767578 22.011719 L 27.767578 22 L 25.767578 24 L 27.767578 26 L 27.767578 25.986328 C 28.317084 26.603528 29.108786 27 30 27 C 31.66 27 33 25.6568 33 24 C 33 22.3433 31.656667 21 30 21 z M 24 25.767578 L 22 27.767578 L 22.013672 27.767578 C 21.396523 28.317078 21 29.1088 21 30 C 21 31.66 22.34325 33 24 33 C 25.65675 33 27 31.6567 27 30 C 27 29.1078 26.604402 28.316478 25.988281 27.767578 L 26 27.767578 L 24 25.767578 z "
             style="fill:#d8541f;fill-opacity:1;fill-rule:nonzero;stroke:none" />
        </g>
      </g>
      <path
         style="color:#000000;font-style:normal;font-variant:normal;font-weight:normal;font-stretch:normal;font-size:medium;line-height:normal;font-family:sans-serif;text-indent:0;text-align:start;text-decoration:none;text-decoration-line:none;text-decoration-style:solid;text-decoration-color:#000000;letter-spacing:normal;word-spacing:normal;text-transform:none;direction:ltr;block-progression:tb;writing-mode:lr-tb;baseline-shift:baseline;text-anchor:start;white-space:normal;clip-rule:nonzero;display:inline;overflow:visible;visibility:visible;opacity:1;isolation:auto;mix-blend-mode:normal;color-interpolation:sRGB;color-interpolation-filters:linearRGB;solid-color:#000000;solid-opacity:1;fill:url(#linearGradient4168);fill-opacity:1;fill-rule:nonzero;stroke:none;stroke-width:3.1000452;stroke-linecap:butt;stroke-linejoin:miter;stroke-miterlimit:4;stroke-dasharray:none;stroke-dashoffset:0;stroke-opacity:1;color-rendering:auto;image-rendering:auto;shape-rendering:auto;text-rendering:auto;enable-background:accumulate"
         d="m 24,1005.3622 c -12.68419,0 -23,10.3158 -23,23 0,12.6842 10.31581,23 23,23 12.68419,0 23,-10.3158 23,-23 0,-12.6842 -10.31581,-23 -23,-23 z m 0,3.0996 c 11.008801,0 19.900391,8.8916 19.900391,19.9004 0,11.0088 -8.89159,19.9004 -19.900391,19.9004 -11.008801,0 -19.90039,-8.8916 -19.90039,-19.9004 0,-11.0088 8.891589,-19.9004 19.90039,-19.9004 z"
         id="path4142"
         inkscape:connector-curvature="0" />
    </g>
  </g>
</svg>
